X: 31
T:Navvie On The Line
M:4/4
L:1/8
R:Hornpipe
N:http://www.lesession.co.uk
Z:Steve Mansfield 1998-2001
K:G
B>c | d>g f>e d>c B>A | G>B D>G B2 A>G | F>A D>F A2 G>F | G>D E>F G>A B>c | 
d>g f>e d>c B>A | G>B D>G B2 A>G | F>G A>B c>d e>f | g2 g2 g2 :: A>G | 
F>A D>F A2 G>F | G>B D>G B2 A>G | F>A D>F A2 G>F | G>D E>F G>A B>c | 
d>g f>e d>c B>A | G>B D>G B2 A>G | F>G A>B c>d e>f | g2 g2 g2 :|

